src/4-icons/vote.svg

<svg width="260" height="260" viewBox="0 0 260 260" fill="none" xmlns="http://www.w3.org/2000/svg">
<path d="M165.952 78H213.133L252 144H8L44.708 78H96.8549M82.316 111.045H177.877M8.12596 143.623H252.088V245.699H8.12596V143.623ZM98.9742 22H161.219V111.045H98.9742V22Z" stroke="black" stroke-width="12" stroke-miterlimit="10" stroke-linecap="round" stroke-linejoin="round"/>
</svg>

<svg width="260" height="260" viewBox="0 0 260 260" fill="none" xmlns="http://www.w3.org/2000/svg"><path d="M165.952 78h47.181L252 144H8l36.708-66h52.147m-14.539 33.045h95.561M8.126 143.623h243.962v102.076H8.126V143.623ZM98.974 22h62.245v89.045H98.974V22Z" stroke="#000" stroke-width="12" stroke-miterlimit="10" stroke-linecap="round" stroke-linejoin="round"/></svg>
